img/icons/ic_favorite_border_black.svg

<svg fill="#000000" height="24" viewBox="0 0 24 24" width="24" xmlns="http://www.w3.org/2000/svg">
    <path d="M0 0h24v24H0z" fill="none"/>
    <path d="M16.5 3c-1.74 0-3.41.81-4.5 2.09C10.91 3.81 9.24 3 7.5 3 4.42 3 2 5.42 2 8.5c0 3.78 3.4 6.86 8.55 11.54L12 21.35l1.45-1.32C18.6 15.36 22 12.28 22 8.5 22 5.42 19.58 3 16.5 3zm-4.4 15.55l-.1.1-.1-.1C7.14 14.24 4 11.39 4 8.5 4 6.5 5.5 5 7.5 5c1.54 0 3.04.99 3.57 2.36h1.87C13.46 5.99 14.96 5 16.5 5c2 0 3.5 1.5 3.5 3.5 0 2.89-3.14 5.74-7.9 10.05z"/>
</svg>

<?xml version="1.0" encoding="UTF-8" standalone="no"?>
<svg width="20px" height="19px" viewBox="0 0 20 19" version="1.1" xmlns="http://www.w3.org/2000/svg" xmlns:xlink="http://www.w3.org/1999/xlink">
    <!-- Generator: Sketch 46.2 (44496) - http://www.bohemiancoding.com/sketch -->
    <title>ic_favorite_border_black</title>
    <desc>Created with Sketch.</desc>
    <defs></defs>
    <g id="Page-1" stroke="none" stroke-width="1" fill="none" fill-rule="evenodd">
        <g id="ic_favorite_border_black" transform="translate(-2.000000, -3.000000)">
            <polygon id="Shape" points="0 0 24 0 24 24 0 24"></polygon>
            <path d="M16.5,3 C14.76,3 13.09,3.81 12,5.09 C10.91,3.81 9.24,3 7.5,3 C4.42,3 2,5.42 2,8.5 C2,12.28 5.4,15.36 10.55,20.04 L12,21.35 L13.45,20.03 C18.6,15.36 22,12.28 22,8.5 C22,5.42 19.58,3 16.5,3 Z M12.1,18.55 L12,18.65 L11.9,18.55 C7.14,14.24 4,11.39 4,8.5 C4,6.5 5.5,5 7.5,5 C9.04,5 10.54,5.99 11.07,7.36 L12.94,7.36 C13.46,5.99 14.96,5 16.5,5 C18.5,5 20,6.5 20,8.5 C20,11.39 16.86,14.24 12.1,18.55 Z" id="Shape" fill="#165B8E" fill-rule="nonzero"></path>
        </g>
    </g>
</svg>
